ePapirus/22x22/animations/nm-vpn-connecting14.svg

<?xml version="1.0" encoding="UTF-8" standalone="no"?>
<svg xmlns="http://www.w3.org/2000/svg" version="1.1" width="22" height="22">
 <defs>
  <linearGradient y2="5" x2="19" gradientTransform="matrix(-0.4368,-0.89956,-0.89956,0.4368,27.037,16.553)" y1="12" gradientUnits="userSpaceOnUse" x1="7" id="linearGradient3605">
   <stop offset="0" stop-opacity=".5" stop-color="#ffffff"/>
   <stop offset="1" stop-opacity="0" stop-color="#ffffff"/>
  </linearGradient>
  <linearGradient y2="12" x2="17" gradientTransform="matrix(0.4368,0.89956,0.89956,-0.4368,-5.0357,5.447)" y1="12" gradientUnits="userSpaceOnUse" x1="7" id="linearGradient3611">
   <stop offset="0" stop-color="#ffffff"/>
   <stop offset="1" stop-color="#ffffff" stop-opacity=".5"/>
  </linearGradient>
 </defs>
 <path d="M 8.3652344 4.59375 C 8.2317344 4.59775 8.0894594 4.632225 7.9433594 4.703125 C 4.4656594 6.391825 3.014425 10.580594 4.703125 14.058594 C 6.0678555 16.868862 9.0646314 18.323569 12 17.898438 L 12 15.873047 C 9.814508 16.321887 7.5231757 15.282336 6.5039062 13.183594 C 5.2977063 10.699594 6.3324062 7.7081531 8.8164062 6.5019531 C 9.8399063 6.0050531 9.2999344 4.56545 8.3652344 4.59375 z" style="fill:url(#linearGradient3611)"/>
 <path d="M 11.3125 4.0058594 C 10.1855 3.9543594 9.0299594 4.175425 7.9433594 4.703125 L 8.8164062 6.5019531 C 11.300006 5.2957531 14.292047 6.3324063 15.498047 8.8164062 C 15.840866 9.5227275 15.985321 10.266789 15.980469 11.001953 C 15.987148 11.001908 15.99331 11 16 11 C 16.742599 11 17.410651 11.288033 17.931641 11.744141 C 18.070773 10.48159 17.892959 9.170965 17.296875 7.9433594 C 16.135875 5.5523594 13.7935 4.1189594 11.3125 4.0058594 z" style="fill:url(#linearGradient3605)"/>
 <path d="m16 12c-1.108 0-2 .91085-2 2.0312v.96875h-1v4h6v-4h-1v-.96875c0-1.12-.892-2.031-2-2.031zm0 1c.554 0 1 .4424 1 1v1h-2v-1c0-.5576.446-1 1-1z" fill="#ffffff"/>
</svg>

<?xml version="1.0" encoding="UTF-8" standalone="no"?>
<svg width="22" xmlns="http://www.w3.org/2000/svg" version="1.1" height="22">
 <defs>
  <linearGradient id="linearGradient3605" y2="5" gradientUnits="userSpaceOnUse" y1="12" gradientTransform="matrix(-.4368 -.89956 -.89956 .4368 27.037 16.553)" x2="19" x1="7">
   <stop stop-opacity=".5" stop-color="#ffffff" offset="0"/>
   <stop stop-opacity="0" stop-color="#ffffff" offset="1"/>
  </linearGradient>
  <linearGradient id="linearGradient3611" y2="12" gradientUnits="userSpaceOnUse" y1="12" gradientTransform="matrix(.4368 .89956 .89956 -.4368 -5.0357 5.447)" x2="17" x1="7">
   <stop stop-color="#ffffff" offset="0"/>
   <stop stop-color="#ffffff" stop-opacity=".5" offset="1"/>
  </linearGradient>
 </defs>
 <path style="fill:url(#linearGradient3611)" d="m8.3652 4.5938c-0.1335 0.004-0.2757 0.0384-0.4218 0.1093-3.4777 1.6887-4.929 5.8779-3.2403 9.3559 1.3648 2.81 4.3615 4.265 7.2969 3.839v-2.025c-2.1855 0.449-4.4768-0.591-5.4961-2.689-1.2062-2.484-0.1715-5.4758 2.3125-6.682 1.0235-0.4969 0.4835-1.9366-0.4512-1.9082z"/>
 <path style="fill:url(#linearGradient3605)" d="m11.312 4.0059c-1.126-0.0515-2.282 0.1695-3.3686 0.6972l0.873 1.7989c2.4836-1.2062 5.4756-0.1696 6.6816 2.3144 0.343 0.7063 0.487 1.4506 0.482 2.1856 0.007 0 0.013-0.002 0.02-0.002 0.743 0 1.411 0.288 1.932 0.744 0.139-1.262-0.039-2.573-0.635-3.8006-1.161-2.391-3.503-3.8244-5.985-3.9375z"/>
 <path d="m16 12c-1.108 0-2 0.91085-2 2.0312v0.96875h-1v4h6v-4h-1v-0.96875c0-1.12-0.892-2.031-2-2.031zm0 1c0.554 0 1 0.4424 1 1v1h-2v-1c0-0.5576 0.446-1 1-1z" fill="#ffffff"/>
</svg>
